symbols/web/slow_motion_video/materialsymbolsoutlined/slow_motion_video_wght300_40px.svg

<svg xmlns="http://www.w3.org/2000/svg" height="40" width="40"><path d="M7.583 29.792q-1.5-1.834-2.333-3.896-.833-2.063-1.042-4.438h2.167q.208 1.917.896 3.646.687 1.729 1.854 3.146ZM4.208 18.125q.209-2.333 1.042-4.396.833-2.062 2.333-3.937l1.542 1.541Q8 12.833 7.292 14.542q-.709 1.708-.917 3.583Zm14.084 17.5q-2.417-.375-4.417-1.167-2-.791-3.917-2.208l1.584-1.583q1.458 1.041 3.166 1.791 1.709.75 3.584 1.042ZM11.625 8.917 10 7.333q1.917-1.458 3.938-2.229 2.02-.771 4.479-1.104v2.083q-1.917.292-3.625 1-1.709.709-3.167 1.834Zm4.75 17.416V13.25l10.25 6.542Zm5.375 9.292V33.5q5.167-.708 8.583-4.604Q33.75 25 33.75 19.792q0-5.209-3.417-9.084-3.416-3.875-8.583-4.625V4q6.083.625 10.083 5.146t4 10.646q0 6.125-4 10.646-4 4.52-10.083 5.187Z"/></svg>

<svg xmlns="http://www.w3.org/2000/svg" height="40" width="40"><path d="M11.625 8.917 10 7.333Q11.917 5.875 13.938 5.104Q15.958 4.333 18.417 4V6.083Q16.5 6.375 14.792 7.083Q13.083 7.792 11.625 8.917ZM4.208 18.125Q4.417 15.792 5.25 13.729Q6.083 11.667 7.583 9.792L9.125 11.333Q8 12.833 7.292 14.542Q6.583 16.25 6.375 18.125ZM7.583 29.792Q6.083 27.958 5.25 25.896Q4.417 23.833 4.208 21.458H6.375Q6.583 23.375 7.271 25.104Q7.958 26.833 9.125 28.25ZM21.75 35.625V33.5Q26.917 32.792 30.333 28.896Q33.75 25 33.75 19.792Q33.75 14.583 30.333 10.708Q26.917 6.833 21.75 6.083V4Q27.833 4.625 31.833 9.146Q35.833 13.667 35.833 19.792Q35.833 25.917 31.833 30.438Q27.833 34.958 21.75 35.625ZM18.292 35.625Q15.875 35.25 13.875 34.458Q11.875 33.667 9.958 32.25L11.542 30.667Q13 31.708 14.708 32.458Q16.417 33.208 18.292 33.5ZM16.375 26.333V13.25L26.625 19.792Z"/></svg>
